X: 23236
T: Leather Away The Wattle-O
R: polka
M: 2/4
K: Dmajor
dA FA|d2 dc/d/|ed cd|ef gf/g/|
af/a/ g/f/e|dB AF|GB A/B/A/G/|FD D:|
f2 fe/f/|g2 ge|f2 fa|gf ef/g/|
af/a/ g/f/e|dB AF|GB A/B/A/G/ FD D:|
dA FA|d2 dc/d/|ed cd|ef gf/g/|
af/a/ g/f/e|dB AF|GB A/B/A/G/|FD D:|
|:f2 fe/f/|g2 ge|f2 fa|gf ef/g/|
af/a/ g/f/e|dB AF|GB A/B/A/G/ FD D:|
dA FA|d2 dc/d/|ed cd|ef gf/g/|
af/a/ g/f/e|dB AF|GB A/B/A/G/|FD D:|
f2 fe/f/|g2 ge|f2 fa|gf ef/g/|
af/a/ g/f/e|dB AF|GB A/B/A/G/ FD D:|

